X: 10833
T: COLEEN DHAS CROOTHE NA MOE.
T: "the Pretty Girl milking her Cow."
O: Irish air.
Q: "Slow."
N: This is version 2, for ABC software that understands trailing grace notes.
%R: air, slip-jig
B: W. Hamilton "Universal Tune-Book" Vol. 1 Glasgow 1844 p.83 #3
S: http://imslp.org/wiki/Hamilton's_Universal_Tune-Book_(Various)
Z: 2016 John Chambers <jc:trillian.mit.edu>
M: 9/8
L: 1/8
K: Gm
% - - - - - - - - - - - - - - - - - - - - - - - - -
!p!(G/A/) |\
BdB AcA GF(G/A/) | BdB AcA G2A |\
BdB AcA GFD | B>AB DG^F G2 |]
A |\
B>c(d/e/) fdB  A<FA | (B>c)(d/e/) fd^f Hg2Hg {ab}|\
f>ed cdB A<F(G/A/) | !p!B>AG DGT^F G2 |]
% - - - - - - - - - - - - - - - - - - - - - - - - -

%%sep 1 1 500
%%sep 1 1 500

